X:202
T:Sunday Sermon
M:C|
C:© Paul Gitlitz 2010
R:Reel
K:G
d|"G"(3ggg gb "D"agfe|"G"(3ddd Bd GdBd|"C"(3ccc ec gcec|"D"defg afdf|!
"G"(3ggg gb "D"agfe|"G"(3ddd Bd GdBd|"Am"cBAB "C"cdeg|"D"fdfa "G"g3:|!
|:d|"G"edgd bdgd|edgd bdgd|"C"ecfc "Am"acfc|"C"ecfc "D"agfe|!
"G"d2gd bdgd|edgd bdgd|"Am"cBAB "C"cdeg|"D"fdfa "G"g3:|!
